public/img/svg/logo.svg

<svg fill="none" height="26" viewBox="0 0 29 26" width="29" xmlns="http://www.w3.org/2000/svg" xmlns:xlink="http://www.w3.org/1999/xlink"><linearGradient id="a" gradientUnits="userSpaceOnUse" x1="0" x2="24.7271" y1=".116211" y2="28.7997"><stop offset="0" stop-color="#5f3dc1"/><stop offset="1" stop-color="#538f16"/></linearGradient><path clip-rule="evenodd" d="m12.8254.129666c-2.92029.362545-5.59276 1.558674-7.77836 3.481394-2.73538 2.40642-4.444277 5.61338-4.922872 9.23814-.30815 2.3342-.0409084 4.7547.781246 7.0764.268396.7579.953526 2.1328 1.433736 2.8773.39023.6049.98511 1.3885 1.49168 1.9648l.23178.2636.0374-.45c.07323-.8808.27609-1.5899.63395-2.2159.20355-.3561.87826-1.0273 1.25591-1.2495.27903-.1643.31601-.2057.32989-.3701.0165-.1961.01153-.2043-.59399-.9799-.35738-.4579-.71833-1.1898-.86631-1.7569-.13886-.5322-.19176-1.6509-.10607-2.2446.08187-.5678.27893-1.3578.45-1.8044.2519-.6574.79717-1.7404 1.14974-2.2834l.34387-.5297v-1.134c0-.62369.01535-1.13403.0341-1.13403s1.42709.46902 3.1297 1.04223c1.7026.5733 3.2488 1.0759 3.4361 1.1171.4441.0976 1.4566.0967 1.8594-.0016.1729-.0422 1.6873-.5421 3.3655-1.11103l3.0511-1.03424v1.11077 1.1108l.3355.4667c.8404 1.1692 1.445 2.4434 1.7696 3.7297.1581.6261.1706.7385.1677 1.5019-.0025.6708-.0243.9049-.116 1.2511-.163.6145-.5221 1.3097-.9763 1.8899-.356.4548-.3945.5265-.3823.712.013.1961.0324.217.3938.4259 1.211.6998 1.8567 1.8519 1.9804 3.5337.02.2708.0477.4924.0618.4924.014 0 .1612-.1497.327-.3327 3.0877-3.4076 4.4089-7.9154 3.6616-12.493-.4648-2.84689-1.8107-5.57013-3.7843-7.65697-2.1951-2.32093-4.848-3.782927-7.917-4.362999-.6794-.128408-.8566-.139534-2.4095-.15114-.9219-.006868-1.7586-.002236-1.8595.010275zm1.9335 3.426774c.361.04764 1.8295.52587 8.2804 2.69667 1.7274.5813 1.911.69224 1.6126.97483-.0748.0708-1.7496.65859-4.7011 1.64992-4.672 1.56914-4.82 1.61534-5.3733 1.67714-.6735.0753-.9499-.0033-5.72428-1.6264-2.49061-.84674-4.60162-1.58285-4.69109-1.63582-.19988-.11829-.23712-.30201-.08789-.43356.12482-.1101.29301-.16946 5.50323-1.94343 4.23773-1.44288 4.34163-1.47014 5.18143-1.35935zm-6.54288 9.33866c0 .0715.02587.1462.05751.1661s.12592.1457.20952.2797c.23524.3771.21533.6664-.07061 1.0243-.44779.5604-.5227.6685-.68046.982-.24006.477-.35509.9035-.38762 1.4374-.1003 1.6453.94436 3.0175 2.52089 3.3112 1.05555.1966 2.19415-.1772 3.00975-.9884l.3061-.3043.034.295c.072.6236.5094 1.5272 1.045 2.1584l.1806.213.2007-.2345c.5103-.5963.9561-1.4336 1.0373-1.9483.0798-.5051.0444-.4959.4487-.1155 1.0683 1.0053 2.5774 1.2583 3.8217.6407.2907-.1444.4966-.3014.792-.6043.6206-.6362.8842-1.3057.8842-2.2454 0-.8733-.2926-1.6546-.8908-2.3786-.1664-.2015-.3287-.4159-.3606-.4766-.1268-.2407-.0303-.6015.2606-.9749.2724-.3495.2117-.3887-.5427-.3508-1.2089.0606-2.389.3478-3.3117.8059-.7468.3707-1.1804.7863-1.4929 1.4307-.3829.7895-.4536 1.5124-.2343 2.3932.0354.1418.0314.1453-.1036.0932-.1826-.0706-.8447-.07-.975.0009-.1212.0659-.1226.0469-.0221-.2899.1002-.3357.0989-1.079-.0025-1.5166-.3645-1.5714-1.787-2.5007-4.37181-2.8558-.30249-.0416-.73269-.0761-.95593-.0766-.39573-.0011-.40594.0021-.40594.1288zm2.23448 1.3583c-.63328.7125-.65544 1.7739-.0513 2.4556.9162 1.0336 2.5834.1122 2.5834-1.4279 0-.3285.0518-.3278.2183.0032.2409.4789.321 1.1881.1965 1.7399-.2423 1.0738-1.1698 1.971-2.2887 2.2138-.3748.0813-.4881.0854-.838.0302-1.74737-.2758-2.58141-2.1004-1.7073-3.7347.33083-.6185.93346-1.1413 1.594-1.3827.4545-.1661.5136-.1455.2931.1026zm8.417-.0823c.861.3294 1.4886 1.0115 1.7923 1.948.128.3947.1273 1.0994-.0014 1.4907-.1786.5432-.6047 1.0938-1.0543 1.3626-.2458.1469-.9445.3414-1.2217.3401-.3258-.0016-.9089-.1519-1.2501-.3222-1.0897-.544-1.7863-1.8428-1.5892-2.9636.0648-.3683.2335-.7972.3931-.9989.0801-.1012.0828-.096.0538.1064-.0396.2763.098.8745.2695 1.172.5602.9715 1.8011 1.1265 2.4171.3019.4825-.6461.4192-1.7214-.1394-2.368-.2061-.2385-.1457-.2511.3303-.069z" fill="url(#a)" fill-rule="evenodd"/></svg>

<svg width="29" height="26" viewBox="0 0 29 26" fill="none" xmlns="http://www.w3.org/2000/svg">
<path fill-rule="evenodd" clip-rule="evenodd" d="M12.8254 0.129666C9.90511 0.492211 7.23264 1.68834 5.04704 3.61106C2.31166 6.01748 0.602763 9.22444 0.124168 12.8492C-0.183982 15.1834 0.0832596 17.6039 0.905414 19.9256C1.17381 20.6835 1.85894 22.0584 2.33915 22.8029C2.72938 23.4078 3.32426 24.1914 3.83083 24.7677L4.06261 25.0313L4.10001 24.5813C4.17324 23.7005 4.3761 22.9914 4.73396 22.3654C4.93751 22.0093 5.61222 21.3381 5.98987 21.1159C6.2689 20.9516 6.30588 20.9102 6.31976 20.7458C6.33626 20.5497 6.33129 20.5415 5.72577 19.7659C5.36839 19.308 5.00744 18.5761 4.85946 18.009C4.7206 17.4768 4.6677 16.3581 4.75339 15.7644C4.83526 15.1966 5.03232 14.4066 5.20339 13.96C5.45529 13.3026 6.00056 12.2196 6.35313 11.6766L6.697 11.1469V10.0129C6.697 9.38921 6.71235 8.87887 6.7311 8.87887C6.74985 8.87887 8.15819 9.34789 9.8608 9.9211C11.5634 10.4944 13.1096 10.997 13.2969 11.0382C13.741 11.1358 14.7535 11.1349 15.1563 11.0366C15.3292 10.9944 16.8436 10.4945 18.5218 9.92557L21.5729 8.89133V10.0021V11.1129L21.9084 11.5796C22.7488 12.7488 23.3534 14.023 23.678 15.3093C23.8361 15.9354 23.8486 16.0478 23.8457 16.8112C23.8432 17.482 23.8214 17.7161 23.7297 18.0623C23.5667 18.6768 23.2076 19.372 22.7534 19.9522C22.3974 20.407 22.3589 20.4787 22.3711 20.6642C22.3841 20.8603 22.4035 20.8812 22.7649 21.0901C23.9759 21.7899 24.6216 22.942 24.7453 24.6238C24.7653 24.8946 24.793 25.1162 24.8071 25.1162C24.8211 25.1162 24.9683 24.9665 25.1341 24.7835C28.2218 21.3759 29.543 16.8681 28.7957 12.2905C28.3309 9.44361 26.985 6.72037 25.0114 4.63353C22.8163 2.3126 20.1634 0.850603 17.0944 0.270531C16.415 0.142123 16.2378 0.130997 14.6849 0.119391C13.763 0.112523 12.9263 0.117155 12.8254 0.129666ZM14.7589 3.55644C15.1199 3.60408 16.5884 4.08231 23.0393 6.25311C24.7667 6.83441 24.9503 6.94535 24.6519 7.22794C24.5771 7.29874 22.9023 7.88653 19.9508 8.87786C15.2788 10.447 15.1308 10.4932 14.5775 10.555C13.904 10.6303 13.6276 10.5517 8.85322 8.9286C6.36261 8.08186 4.2516 7.34575 4.16213 7.29278C3.96225 7.17449 3.92501 6.99077 4.07424 6.85922C4.19906 6.74912 4.36725 6.68976 9.57747 4.91579C13.8152 3.47291 13.9191 3.44565 14.7589 3.55644ZM8.21602 12.8951C8.21602 12.9666 8.24189 13.0413 8.27353 13.0612C8.30517 13.0811 8.39945 13.2069 8.48305 13.3409C8.71829 13.718 8.69838 14.0073 8.41244 14.3652C7.96465 14.9256 7.88974 15.0337 7.73198 15.3472C7.49192 15.8242 7.37689 16.2507 7.34436 16.7846C7.24406 18.4299 8.28872 19.8021 9.86525 20.0958C10.9208 20.2924 12.0594 19.9186 12.875 19.1074L13.1811 18.8031L13.2151 19.0981C13.2871 19.7217 13.7245 20.6253 14.2601 21.2565L14.4407 21.4695L14.6414 21.235C15.1517 20.6387 15.5975 19.8014 15.6787 19.2867C15.7585 18.7816 15.7231 18.7908 16.1274 19.1712C17.1957 20.1765 18.7048 20.4295 19.9491 19.8119C20.2398 19.6675 20.4457 19.5105 20.7411 19.2076C21.3617 18.5714 21.6253 17.9019 21.6253 16.9622C21.6253 16.0889 21.3327 15.3076 20.7345 14.5836C20.5681 14.3821 20.4058 14.1677 20.3739 14.107C20.2471 13.8663 20.3436 13.5055 20.6345 13.1321C20.9069 12.7826 20.8462 12.7434 20.0918 12.7813C18.8829 12.8419 17.7028 13.1291 16.7801 13.5872C16.0333 13.9579 15.5997 14.3735 15.2872 15.0179C14.9043 15.8074 14.8336 16.5303 15.0529 17.4111C15.0883 17.5529 15.0843 17.5564 14.9493 17.5043C14.7667 17.4337 14.1046 17.4343 13.9743 17.5052C13.8531 17.5711 13.8517 17.5521 13.9522 17.2153C14.0524 16.8796 14.0511 16.1363 13.9497 15.6987C13.5852 14.1273 12.1627 13.198 9.57789 12.8429C9.2754 12.8013 8.8452 12.7668 8.62196 12.7663C8.22623 12.7652 8.21602 12.7684 8.21602 12.8951ZM10.4505 14.2534C9.81722 14.9659 9.79506 16.0273 10.3992 16.709C11.3154 17.7426 12.9826 16.8212 12.9826 15.2811C12.9826 14.9526 13.0344 14.9533 13.2009 15.2843C13.4418 15.7632 13.5219 16.4724 13.3974 17.0242C13.1551 18.098 12.2276 18.9952 11.1087 19.238C10.7339 19.3193 10.6206 19.3234 10.2707 19.2682C8.52333 18.9924 7.68929 17.1678 8.5634 15.5335C8.89423 14.915 9.49686 14.3922 10.1574 14.1508C10.6119 13.9847 10.671 14.0053 10.4505 14.2534ZM18.8675 14.1711C19.7285 14.5005 20.3561 15.1826 20.6598 16.1191C20.7878 16.5138 20.7871 17.2185 20.6584 17.6098C20.4798 18.153 20.0537 18.7036 19.6041 18.9724C19.3583 19.1193 18.6596 19.3138 18.3824 19.3125C18.0566 19.3109 17.4735 19.1606 17.1323 18.9903C16.0426 18.4463 15.346 17.1475 15.5431 16.0267C15.6079 15.6584 15.7766 15.2295 15.9362 15.0278C16.0163 14.9266 16.019 14.9318 15.99 15.1342C15.9504 15.4105 16.088 16.0087 16.2595 16.3062C16.8197 17.2777 18.0606 17.4327 18.6766 16.6081C19.1591 15.962 19.0958 14.8867 18.5372 14.2401C18.3311 14.0016 18.3915 13.989 18.8675 14.1711Z" fill="url(#paint0_linear)"/>
<defs>
<linearGradient id="paint0_linear" x1="0" y1="0.116211" x2="24.7271" y2="28.7997" gradientUnits="userSpaceOnUse">
<stop stop-color="#5F3DC1"/>
<stop offset="1" stop-color="#538F16"/>
</linearGradient>
</defs>
</svg>
